X:4946
T:Paddy Lynn's Delight
O:england
R:reel
S:J\"orgen Fischer
D:Mary MacNamara: Traditional Music from East Clare
M:C|
K:Ador
eA~A2 cBAG|EG~G2 GED2|eA~A2 cBAB|cded e2ag|
eA~A2 cBAG|EG~G2 GEDE|(3Bcd eg agec|1 AcBG A2ag:|2 AcBG ~A3B||
|:c2gc acgd|cdeg aege|c2gc acgB|cded cA~A2|
c2gc acgd|cdeg ageg|gc'ba gedB|1 AcBG ~A3B:|2 AcBG A2ag||
